src/next/cmd/lc_wrapon.svg

<svg height="24" width="24" xmlns="http://www.w3.org/2000/svg" xmlns:xlink="http://www.w3.org/1999/xlink"><filter id="a"><feGaussianBlur stdDeviation="2.0786429"/></filter><radialGradient id="b" cx="109.42462" cy="127.15892" gradientTransform="matrix(1 0 0 .9996653 -8.000004 3.603016)" gradientUnits="userSpaceOnUse" r="139.55859"><stop offset="0" stop-color="#b7b8b9"/><stop offset=".18851049" stop-color="#ececec"/><stop offset=".25718147" stop-color="#fafafa"/><stop offset=".30111277" stop-color="#fff"/><stop offset=".5313" stop-color="#fafafa"/><stop offset=".8449" stop-color="#ebecec"/><stop offset="1" stop-color="#e1e2e3"/></radialGradient><clipPath id="c"><path d="m0 0h128v128h-128z"/></clipPath><g clip-path="url(#c)" transform="matrix(.1875 0 0 .1875 -.5 -.424986)"><path d="m5.9999943 6.6.04 116.69993h116.7399257l-.04-116.69993z" filter="url(#a)" opacity=".553903"/><path d="m7.9999943 7.6v111.99993h111.2361757l.83598-.004.008-.8398-.08023-111.15613z" fill="#fff"/><path d="m14.999994 13.2c-.551 0-1 .449185-1 1l-.18 99.57993 99.109926.02c.69134 0 1.35-1.06653 1.35-1.84375l-.14-97.55618c0-.550815-.448-1-1-1z" fill="url(#b)"/><path d="m88.174619 94.846118c-.427769-9.51911-.261371-25.031438-1.218745-30.413812-6.191669-19.445583-6.268416-13.62971-8.287355-20.751997-1.94666 6.292789-.29165 9.293039 1.94997 15.037659 1.021633 6.786647-1.874818 14.713931-2.924971 17.744533-15.105688-7.986829-27.902733-15.523694-31.686943-34.887477 0-1.80456-.974986-8.421142-.974986-8.421142-6.452409 9.178232-6.151639 15.157635-3.168691 25.864881 5.952573 18.465901 13.401143 22.276736 29.026358 27.970166.969211.288544 3.866985.402874 4.387429 1.503765.522797.851616.02813 4.216563.03034 6.353424z" fill="#06f" fill-rule="evenodd"/><g fill="#404040" fill-opacity=".839216"><path d="m-109.33327 18.266661h90.666611v5.333331h-90.666611z" transform="scale(-1 1)"/><path d="m-109.33327 98.266609h90.666611v5.333331h-90.666611z" transform="scale(-1 1)"/><path d="m16 32v5.333984h10.666016v-5.333984zm80 0v5.333984h10.66602v-5.333984z" transform="translate(2.666664 2.26659)"/><path d="m16 48v5.333984h10.666016v-5.333984zm80 0v5.333984h10.66602v-5.333984z" transform="translate(2.666664 2.26659)"/><path d="m16 64v5.333984h10.666016v-5.333984zm80 0v5.333984h10.66602v-5.333984z" transform="translate(2.666664 2.26659)"/><path d="m16 80v5.333984h10.666016v-5.333984zm80 0v5.333984h10.66602v-5.333984z" transform="translate(2.666664 2.26659)"/></g></g></svg>

<?xml version="1.0" encoding="UTF-8" standalone="no"?>
<svg
   xmlns:dc="http://purl.org/dc/elements/1.1/"
   xmlns:cc="http://creativecommons.org/ns#"
   xmlns:rdf="http://www.w3.org/1999/02/22-rdf-syntax-ns#"
   xmlns:svg="http://www.w3.org/2000/svg"
   xmlns="http://www.w3.org/2000/svg"
   xmlns:sodipodi="http://sodipodi.sourceforge.net/DTD/sodipodi-0.dtd"
   xmlns:inkscape="http://www.inkscape.org/namespaces/inkscape"
   height="24"
   width="24"
   version="1.1"
   id="svg47"
   sodipodi:docname="lc_wrapon.svg"
   inkscape:version="0.92.4 (unknown)">
  <metadata
     id="metadata53">
    <rdf:RDF>
      <cc:Work
         rdf:about="">
        <dc:format>image/svg+xml</dc:format>
        <dc:type
           rdf:resource="http://purl.org/dc/dcmitype/StillImage" />
        <dc:title></dc:title>
      </cc:Work>
    </rdf:RDF>
  </metadata>
  <defs
     id="defs51" />
  <sodipodi:namedview
     pagecolor="#ffffff"
     bordercolor="#666666"
     borderopacity="1"
     objecttolerance="10"
     gridtolerance="10"
     guidetolerance="10"
     inkscape:pageopacity="0"
     inkscape:pageshadow="2"
     inkscape:window-width="1366"
     inkscape:window-height="714"
     id="namedview49"
     showgrid="true"
     inkscape:zoom="1.84375"
     inkscape:cx="10.969707"
     inkscape:cy="11.506836"
     inkscape:window-x="0"
     inkscape:window-y="28"
     inkscape:window-maximized="1"
     inkscape:current-layer="g72">
    <inkscape:grid
       type="xygrid"
       id="grid55" />
  </sodipodi:namedview>
  <filter
     id="a">
    <feGaussianBlur
       stdDeviation="2.0786429"
       id="feGaussianBlur2" />
  </filter>
  <radialGradient
     id="b"
     cx="109.42462"
     cy="127.15892"
     gradientTransform="matrix(1,0,0,0.9996653,-8.000004,3.603016)"
     gradientUnits="userSpaceOnUse"
     r="139.55859">
    <stop
       offset="0"
       stop-color="#b7b8b9"
       id="stop5" />
    <stop
       offset=".18851049"
       stop-color="#ececec"
       id="stop7" />
    <stop
       offset=".25718147"
       stop-color="#fafafa"
       id="stop9" />
    <stop
       offset=".30111277"
       stop-color="#fff"
       id="stop11" />
    <stop
       offset=".5313"
       stop-color="#fafafa"
       id="stop13" />
    <stop
       offset=".8449"
       stop-color="#ebecec"
       id="stop15" />
    <stop
       offset="1"
       stop-color="#e1e2e3"
       id="stop17" />
  </radialGradient>
  <clipPath
     id="c">
    <path
       d="M 0,0 H 128 V 128 H 0 Z"
       id="path20"
       inkscape:connector-curvature="0" />
  </clipPath>
  <g
     clip-path="url(#c)"
     transform="matrix(0.1875,0,0,0.1875,-0.4999995,-0.42498563)"
     id="g45">
    <path
       style="opacity:0.55390296;filter:url(#a)"
       inkscape:connector-curvature="0"
       d="m 5.9999943,6.6 0.04,116.69993 H 122.77992 L 122.73992,6.6 Z"
       id="path23" />
    <path
       style="fill:#ffffff"
       inkscape:connector-curvature="0"
       d="M 7.9999943,7.6 V 119.59993 H 119.23617 l 0.83598,-0.004 0.008,-0.8398 L 119.99992,7.6 Z"
       id="path25" />
    <path
       inkscape:connector-curvature="0"
       style="fill:url(#b)"
       d="m 14.999994,13.2 c -0.551,0 -1,0.449185 -1,1 l -0.18,99.57993 99.109926,0.02 c 0.69134,0 1.35,-1.06653 1.35,-1.84375 L 114.13992,14.4 c 0,-0.550815 -0.448,-1 -1,-1 z"
       id="path27" />
    <path
       style="fill:#0066ff;fill-rule:evenodd"
       inkscape:connector-curvature="0"
       d="M 88.174619,94.846118 C 87.74685,85.327008 87.913248,69.81468 86.955874,64.432306 80.764205,44.986723 80.687458,50.802596 78.668519,43.680309 c -1.94666,6.292789 -0.29165,9.293039 1.94997,15.037659 1.021633,6.786647 -1.874818,14.713931 -2.924971,17.744533 C 62.58783,68.475672 49.790785,60.938807 46.006575,41.575024 c 0,-1.80456 -0.974986,-8.421142 -0.974986,-8.421142 -6.452409,9.178232 -6.151639,15.157635 -3.168691,25.864881 5.952573,18.465901 13.401143,22.276736 29.026358,27.970166 0.969211,0.288544 3.866985,0.402874 4.387429,1.503765 0.522797,0.851616 0.02813,4.216563 0.03034,6.353424 z"
       id="path29" />
    <g
       style="fill:#404040;fill-opacity:0.83921599"
       id="g43">
      <path
         inkscape:connector-curvature="0"
         d="m -109.33327,18.266661 h 90.666611 v 5.333331 h -90.666611 z"
         transform="scale(-1,1)"
         id="path31" />
      <path
         inkscape:connector-curvature="0"
         d="m -109.33327,98.266609 h 90.666611 v 5.333331 h -90.666611 z"
         transform="scale(-1,1)"
         id="path33" />
      <path
         inkscape:connector-curvature="0"
         d="m 16,32 v 5.333984 H 26.666016 V 32 Z m 80,0 v 5.333984 h 10.66602 V 32 Z"
         transform="translate(2.666664,2.26659)"
         id="path35" />
      <path
         inkscape:connector-curvature="0"
         d="m 16,48 v 5.333984 H 26.666016 V 48 Z m 80,0 v 5.333984 h 10.66602 V 48 Z"
         transform="translate(2.666664,2.26659)"
         id="path37" />
      <path
         inkscape:connector-curvature="0"
         d="m 16,64 v 5.333984 H 26.666016 V 64 Z m 80,0 v 5.333984 h 10.66602 V 64 Z"
         transform="translate(2.666664,2.26659)"
         id="path39" />
      <path
         inkscape:connector-curvature="0"
         d="m 16,80 v 5.333984 H 26.666016 V 80 Z m 80,0 v 5.333984 h 10.66602 V 80 Z"
         transform="translate(2.666664,2.26659)"
         id="path41" />
    </g>
  </g>
</svg>
